X: 47
M:4/4
L:1/8
K:C
(3EF^F | G>Gc>d e>cG>E | A>Ad>e f4 | B>g^f>g =f>dA>B |
(3ced (3cBA G2 (EF) | G>Gc>d e>cG>E | A>Ad>e f4 | B>g^f>g =f>dA>B | c2e2c4 ||
K:F
g>fd>f c>BA>B | (3cdc (3BAG F2 ||
K:G
d>ed>c B>cB>A | G2 (3Geg e2d2 | (3fgf (3efe (3ded (3cBA | G2B2G2 ||



